X:1
T:Das Lied
T:Louis Spohr
T:H. Schütz (1798-1880)
T:Das Lied
T:CPDL - Creative Commons Attribution Non Commercial 3.0
C:Louis Spohr
Z:Heinrich Schütz (1798-1880)
Z:CPDL - Creative Commons Attribution Non Commercial 3.0
%%score [ ( 1 2 ) ( 3 4 ) ]
L:1/8
Q:1/4=100
M:4/4
K:D
V:1 treble-8 nm="Tenor"
V:2 treble-8 
V:3 bass nm="Bass"
V:4 bass 
V:1
"^Kräftig und bewegt"!f! D3 D F2 A2 | d4 A4 |!f!!<(! d3 d!<)! d2 e2 | f6 z2 |!mf! A3 A d2 d2 | %5
!<(! c6!<)! ^d2 | e3 A!>(! c2 B2!>)! | A6 z2 |:!mf! B3 B!<(! B2 c2!<)! | d8 |!<(! e3 c!<)! d2 e2 | %11
 f8 |!f! d2!<(! A2 d2!<)! e2 |!ff! f4 !>!a2 !>!g2 | f6 e2 | d6 z2 :| %16
V:2
 D3 D F2 A2 | d4 A4 | A3 A B2 c2 | d6 x2 | A3 A B2 B2 | B4 A4 | c3 A A2 ^G2 | A6 x2 |: %8
w: 1. Wie~ ein~ stol- zer~|Ad- ler~|schwingt~ sich~ auf~ das~|Lied,~|dass~ es~ froh~ die~|See- le~|auf~ zum~ Him- mel~|zieht.|
w: 2. Was der tiefs- ten|See- le|je Er- qui- ckung|beut,|al- les Gro- ße,|Ed- le,|Treu' und Ei- nig-|keit,|
w: 3.  Al- les Zar- te,|Schö- ne,|was die Brust be-|wegt,|al- les gött- lich|Ho- he,|das zum Him- mel|trägt:|
 =G3 B B2 ^A2 | B8 | c3 A B2 c2 | d8 | d2 A2 d2 c2 | d4 d2 e2 | d4 c4 | A6 x2 :| %16
w: Weckt~ in~ uns'- rer~|Brust~|ho- he,~ heil'- ge~|Lust,~|weckt~ in~ uns'- rer~|Brust~ ho- he,~|heil'- ge~|Lust.~|
w: Lieb' und Ta- ten-|drang|we- cket der Ge-|sang,|Lieb' und Ta- ten-|drang we- cket|der Ge-|sang.|
w: Al- les das er-|blüht|freu- dig aus dem|Lied,|Al- les das er-|blüht freu- dig|aus dem|Lied.|
V:3
!f! D,3 D, F,2 A,2 | D4 A,4 |!f!!<(! F,3 F,!<)! F,2 A,2 | A,6 z2 |!mf! F,3 E, F,2 F,2 | %5
!<(! (^E,2 ^G,2)!<)! F,4 | A,3 F,!>(! E,2 D,2!>)! | C,6 z2 |:!mf! G,3 G,!<(! G,2 F,2!<)! | F,8 | %10
!<(! A,3 A,!<)! A,2 A,2 | A,8 |!f! D2!<(! A,2 A,2!<)! A,2 |!ff! A,4 !>!A,2 !>!B,2 | %14
 A,4!>(! G,4!>)! | F,6 z2 :| %16
V:4
 D,3 D, F,2 A,2 | D4 A,4 | D,3 D, B,,2 A,,2 | D,6 x2 | D,3 C, B,,2 B,,2 | C,4 F,4 | %6
w: ||||||
w: ||||||
w: ||||||
 E,3 F, E,2 E,2 | A,,6 x2 |: z8 | B,,3 D, F,2 B,2 | A,6 z2 | D,3 D, F,2 A,2 | D2 A,2 F,2 E,2 | %13
w: |||weckt~ in~ uns'- rer~|Brust~|ho- he,~ heil- ge~|Lust,~ * * *|
w: |||Lieb' und Ta- ten-|drang|we- cket der Ge-|sang, * * *|
w: |||Al- les das er-|blüht|freu- dig aus dem|Lied, * * *|
 D,4 F,2 G,2 | A,4 A,,4 | D,6 x2 :| %16
w: |||
w: |||
w: |||

